packages/react-icons/icons/clipboard-with-arrow.svg

<svg width="24" height="25" viewBox="0 0 24 25" xmlns="http://www.w3.org/2000/svg"><path fill-rule="evenodd" clip-rule="evenodd" d="M7.13507 4.35703C7.13507 3.85997 7.53802 3.45703 8.03507 3.45703H15.9653C16.4623 3.45703 16.8653 3.85997 16.8653 4.35703V4.71794H18.3901C18.8872 4.71794 19.2901 5.12088 19.2901 5.61794V20.7369C19.2901 21.234 18.8872 21.6369 18.3901 21.6369H5.61045C5.11339 21.6369 4.71045 21.234 4.71045 20.7369V5.61794C4.71045 5.12088 5.11339 4.71794 5.61045 4.71794H7.13507V4.35703ZM16.8653 6.81496V6.51794H17.4901V19.8369H6.51045V6.51794H7.13507V6.81496C7.13507 7.31201 7.53802 7.71496 8.03507 7.71496H15.9653C16.4623 7.71496 16.8653 7.31201 16.8653 6.81496ZM8.93507 5.25703V5.91496H15.0653V5.25703H8.93507ZM14.8122 14.7366C15.163 14.3844 15.162 13.8146 14.8098 13.4638C14.4577 13.113 13.8878 13.1141 13.537 13.4662L12.9005 14.1051V11.2754C12.9005 10.7783 12.4976 10.3754 12.0005 10.3754C11.5035 10.3754 11.1005 10.7783 11.1005 11.2754V14.1052L10.464 13.4662C10.1132 13.1141 9.54334 13.113 9.1912 13.4638C8.83906 13.8146 8.83799 14.3845 9.18879 14.7366L11.3629 16.919C11.5318 17.0885 11.7613 17.1838 12.0005 17.1838C12.2398 17.1838 12.4693 17.0885 12.6381 16.919L14.8122 14.7366Z"/></svg>

<svg xmlns="http://www.w3.org/2000/svg" width="24" height="25"><path fill-rule="evenodd" d="M7.135 4.357a.9.9 0 0 1 .9-.9h7.93a.9.9 0 0 1 .9.9v.36h1.525a.9.9 0 0 1 .9.9v15.12a.9.9 0 0 1-.9.9H5.61a.9.9 0 0 1-.9-.9V5.617a.9.9 0 0 1 .9-.9h1.525v-.36Zm9.73 2.458v-.297h.625v13.319H6.51V6.517h.625v.298a.9.9 0 0 0 .9.9h7.93a.9.9 0 0 0 .9-.9Zm-7.93-1.558v.658h6.13v-.658h-6.13Zm5.877 9.48a.9.9 0 1 0-1.275-1.27l-.637.638v-2.83a.9.9 0 1 0-1.8 0v2.83l-.636-.639a.9.9 0 0 0-1.275 1.27l2.174 2.183a.9.9 0 0 0 1.275 0l2.174-2.182Z" clip-rule="evenodd"/></svg>
